X:1
T:James Gibb editions
T:Ego sum panis vivus - Palestrina
T:#
%%score [ 1 2 3 4 ]
L:1/8
Q:1/4=90
M:4/4
K:A
V:1 treble nm="Soprano" snm="S"
V:2 treble nm="Alto" snm="A"
V:3 treble-8 nm="Tenor" snm="T"
V:4 bass nm="Bass" snm="B"
V:1
"^andante""^Giovanni Pierluigi da Palestrina\n(1525-1594)""^Ego sum panis vivus"!p! e8 | %1
w: E-|
 d4 c2 (AB | cd e4) B2 | (d3 c ABcA | B3 A B2 c2- | c2 B2 c4- |[M:4/4] c2 BA B4) |!>(! A8!>)! | %8
w: go sum pa\- *|* * * nis|vi\- * * * * *||||vus,|
 z8 |!mp! e8 | d4 c2 (AB | cd e4) B2 | (d3 c ABcA |!>(! B4) A4!>)! | z2!mp! A4 B2 | c4 B2 G2 | %16
w: |e-|go sum pa\- *|* * * nis|vi\- * * * * *|* vus.|Pa- tres|ve- stri man-|
!<(! A2 B2 c4!<)! | d4 e2 c2 | d2 e4 (^d2 | e2 =dc B2 c2- | cB!>(! A4 G2!>)! | A4) z4 | z8 | %23
w: du- ca- ve-|runt man- na|in de- ser\-|||to,||
 z2!mf! A4 B2 | c4 B2 G2 | A2 B2 c2 d2 | e4 c2 f2- | f2 e2 d4 | (c3!>(! A BA A2- | %29
w: pa- tres|ve- stri man-|du- ca- ve- runt|man- na in|* de- ser-|to * * * *|
 A2 GF"^," G2!>)!!p! G2-) | G2 A4 F2 | F8 |!>(! E8!>)! | z2!mp! e4 c2 | c4 A2 F2 | (f3 e dc d2) | %36
w: * * * * et|* mor- tu-|i|sunt.|Hic est|pa- nis de|cae\- * * * *|
 B2 (e3 d c2) | B4 A4- | A8 | z8 | z8 | e6 c2 | c4 A2 F2 | (f3 e dc d2) | B2 (e3 dcB | AB G2) F4 | %46
w: lo de\- * *|scen- dens:||||Hic est|pa- nis de|cae\- * * * *|lo de\- * * *|* * * scen-|
 E4 z2 E2 | A2 B2 c4- | c2 B2 A2 G2 | A2 F2 E2 e2 |!mf! e2 d2 (c3 B/A/ | B4)!>(! A4- | A8!>)! | %53
w: dens: si|quis ex ip\-|* so man- du-|ca- ve- rit non|mo- ri- e\- * *|* tur.||
 z6 A2 | d2 e2 f4- | f2 e2 (d3 c | AB c4) B2 | c2 c2 B2"^,"!mf! e2 | e2 d2 c4- | c2 B2 z4 | z6 d2 | %61
w: si|quis ex ip\-|* so man\- *|* * * du-|ca- ve- rit non|mo- ri\- e\-|* tur,|non|
 d2 c2 B4 | A8 | z2!mf! B2 c2 (AB | cd e4 ^d2) | (e3 =d c2 B2 | c2 B3 A A2- | A2 GF G4) |!>(! A8- | %69
w: mo- ri- e-|tur,|non mo- ri\- *||e\- * * *|||tur.|
 A8 | !fermata!A8!>)! |] %71
w: ||
V:2
 z8 | z4!p! A4- | A4 G4 | F2 (DE FG A2- | A2 GF G2) C2 | F4 E4- |[M:4/4] E4 z4 | z8 | z4!mp! A4- | %9
w: |E\-|* go|sum pa\- * * * *|* * * * nis|vi- vus,|||e\-|
 A4 G4 | F2 (D!<(!E FG A2-!<)! | A2) E2 (=G3 F | DE F2 FG A2- | A2 G2) A4 |!mp! D2 E2 F4 | %15
w: * go|sum pa\- * * * *|* nis vi\- *||* * vus.|Pa- tres ve-|
 E2 C2 D2 E2 |!<(! F2 G2 (AG!<)!FE | F4) E4 | F2 G2 F4 |!<(! E2 A4 G2!<)! | E2 F4 E2 | %21
w: stri man- du- ca-|ve- runt, man\- * * *|* na|in de- ser-|to, man- du-|ca- ve- runt|
 C2 D2 (E3 D | F2) E2 D4 |"^," C2!mf! E2 (F4 | A3 G F2 ED) | (C2 B,2) A,2 A2 | A2 G2 A4 | %27
w: man- na in *|* de- ser-|to, in de\-||ser\- * to, man-|du- ca- ve-|
 A4 F2 D2 | A4!>(! F4 | E4 E4 |!p! E4 (F3 E | D6) D2 | (C4 B,4) | C4 z2!mp! A2- | A2 F2 F4 | %35
w: runt man- na|in de-|ser- to|et mor\- *|* tu-|i *|sunt. Hic|* est pa-|
 D2 B,2 (B3 A | GF G2) E2 (A2- | A2 G2) (A3 G/F/ | E2 F2) C4 | z6 F2 | (B3 A GF G2) | %41
w: nis de cae\- *|* * * lo de\-|* * scen\- * *|* * dens|de|cae\- * * * *|
 E2 A2 (G2 F2- | F2 ^E2) F4 | z2 B,2 (B3 A | GF G2) E2 (AG | FE) (E4 ^D2) |"^," E2 A,2 D2 E2 | %47
w: lo de- scen\- *|* * dens,|de cae\- *|* * * lo de\- *|* * scen\- *|dens: si quis ex|
 F2 E4 A2- | A2 G2 (F2 ED | C2 D2) (E4 | F3!>)! G AB!mf! A2 | A2 G2 A2) D2 | C2 (FE FG) (A2- | %53
w: ip- so man\-|* du- ca\- * *|* ve- rit,||* * * non|mo- ri\- * * * e\-|
 A2 G2 A3 G | F2 E2 D4- | D2) C2 z2 A,2 | D2 E2 F4 | E2 A4 G2 | A2 F2 E4- | E4 z4 | %60
w: ||* tur, si|quis ex ip-|so man- du-|ca- ve- rit||
 z2!mf! E2 F2 (DE | FG A4) G2 | A4 z2 E2 | F2 G2 (A4- | A2 G2 F4) |"^," E2 A2 A2 G2 | F4 E4- | E8 | %68
w: non mo- ri\- *|* * * e-|tur, non|mo- ri- e\-||tur, non mo- ri-|e- tur,||
 z2!>(! D2 D2 C2 | F8 | !fermata!E8!>)! |] %71
w: non mo- ri-|e-|tur.|
V:3
 z8 | z8 | z8 | z8 |!p! e8 | d4 c2 (AB |[M:4/4][K:treble-8] cd e4) B2 | (d3 c ABcA | %8
w: ||||E-|go sum pa\- *|* * * nis|vi\- * * * * *|
 B4)"^," c2!mp! d2- | d2 c2 e4 | B4 z2 f2 | c2 c2 (e2 dc | Bc d2) ((c4 | e4)) (f4- | f2 e2 d4 | %15
w: * vus, pa\-|* nis vi-|vus, e-|go sum pa\- * *|* * * nis|* vi\-||
 c4) z4 | z6 A2- | A2 B2 c4 | B2 G2 A2 B2 | c2 d2 e4 | c2 d2 B4 | (A3 B cd e2 | d2 c4 B2) | %23
w: vus.|Pa\-|* tres ve-|stri man- du- ca-|ve- runt man-|na in de-|ser\- * * * *||
 c4 z2!mf! d2 | e2 c2 d2 e2 | (e3 d c2) A2 | B4 A2 d2- | d2 c2 z2 f2- | f2 e2 (d4 | c2 BA B4 | %30
w: to, man-|du- ca- ve- runt|man\- * * na|in de- ser\-|* to, in|* de- ser\-||
!p! c4 z2 A2- | A2 B4 B2 | G2 A2- AG/F/ G2) | A8 | z8 | z8 | z8 |!mp! e6 c2 | c4 A2 F2 | %39
w: to et|* mor- tu|i * * * * *|sunt.||||Hic est|pa- nis de|
 (f3 e dc d2) | B4 (e3 d | cB c2- cB A2) | G4"^," F2 A2 | (d3 e f2) d2 | e4 c2 A2 | z8 | z8 | z8 | %48
w: cae\- * * * *|lo de\- *||scen- dens, de|cae\- * * lo|de- scen- dens:||||
 z6 E2 | A2 B2 c4 | B4 z2!mf! A2 | d2 e2 f4 | e2 d4!<(! c2 | d2 B2 A4-!<)! | A4!>(! z2 A2 | %55
w: si|quis ex ip-|so, si|quis ex ip-|so man- du-|ca- ve- rit,|* si|
 d2 e2 f4-!>)! | f2 c2 d2 d2 | c3 d e4 | z2 B2!mf! c2 (AB | cd e4 d2- | d2 c2 (d3 c | B2 A2 e4) | %62
w: quis ex ip\-|* so man- du-|ca- ve- rit|non mo- ri\- *||* e- tur, *||
 z2 d2 d2 c2 | B4 A!<(!Bcd | e4)!<)! z2 B2 | c2 (AB cd e2- | e2 d2) (c3 B/A/ | B8) | %68
w: non mo- ri-|e- tur, * * *|* non|mo- ri\- * * * *|* * e\- * *||
"^," A2!>(! f2 f2 e2 | d8 | !fermata!c8!>)! |] %71
w: tur, non mo- ri-|e-|tur.|
V:4
 z8 | z8 | z8 | z8 | z8 | z4!p! A,4- |[M:4/4] A,4 G,4 | F,2!<(! (D,E, F,G, A,2-!<)! | %8
w: |||||E\-|* go|sum pa\- * * * *|
 A,2) G,2 (F,3 G, |!>(! A,4)!>)! E,4 | z2!mp! B,2 F,2 F,2 | A,4 E,2 (=G,2 | G,F,D,E,!>(! F,4)!>)! | %13
w: * nis vi\- *|* vus,|e- go sum|pa- nis vi\-||
 E,4 z2!mp! D,2- | D,2 C,2 D,4 |!<(! A,2 A,2 B,2 C2!<)! | F,2 E,2 A,4 |!>(! ((D,4 A,4))!>)! | z8 | %19
w: vus. Pa\-|* tres ve-|stri man- du- ca-|ve- runt, man-|na, *||
 z8 | z2 D,4 E,2 | F,4 E,2 C,2 | D,2!<(! E,2 F,2 G,2!<)! |!mf! A,4 D,4 | A,4 B,2 (C2- | %25
w: |pa- tres|ve- stri ma-|du- ca- ve- runt|man- na|in de- ser\-|
 CB,/A,/!>(! G,2 A,2)"^," F,2!>)! | E,4 (F,3 G, | A,4 D,3 E, | F,G, A,2) D,4 |"^,"!>(! E,8!>)! | %30
w: * * * * * to,|in de\- *||* * * ser-|to,|
!p! C,4 D,4- | D,2 B,,2 (B,,4 |!>(! C,3 D, E,4) | A,,8!>)! | z8 | z8 | z8 | z4!mp! A,4- | %38
w: et mor\-|* tu- i||sunt.||||Hic|
 A,2 F,2 F,4 | D,2 B,,2 (B,3 A, | G,F, G,2) E,4 | (A,3 G,/F,/ E,2) F,2 |"^," C,2 C,2 D,4 | %43
w: * est pa-|nis de cae\- *|* * * lo|de\- * * * scen-|dens, de cae-|
 B,,4 B,,4 | E,4 A,,4 | z2 E,2 A,2 B,2 | C4 B,2 A,2- | A,2 G,2 A,2 F,2 | E,4 z4 | z8 | z8 | z8 | %52
w: lo de-|scen- dens:|si quis ex|ip- so man-|* du- ca- ve|rit||||
 z6!mf!!<(! A,,2 | D,2 E,2 F,3!<)! E, | D,2 C,2!>(! D,4- | D,2 A,2!>)! D,4 | z8 | z8 | z4!mf! A,4 | %59
w: si|quis ex ip- so|man- du- ca\-|* ve- rit,|||non|
 A,2 =G,2 (F,3 E,/D,/ | E,4 D,4 | z6 E,2 | F,2 (D,E, F,G, A,2 | A,2 G,2) F,4 |!>(! E,4 B,4)!>)! | %65
w: mo- ri- e\- * *|* tur,|non|mo- ri\- * * * *|* * e-|tur, *|
"^GACB." z8 | z2!mf! B,,2 C,2 A,,2 | E,4"^," E,2 E,2 | F,2!>(! (D,E, F,G, A,2) | D,8 | %70
w: |non mo- ri-|e- tur, non|mo- ri\- * * * *|e-|
 !fermata!A,,8!>)! |] %71
w: tur.|

